flaticon/seo-and-analytics/analytics-10.svg

<svg xmlns="http://www.w3.org/2000/svg" width="32" height="32" viewBox="0 0 24 24">
    <path d="M2.398438 3.601562L7.601562 3.601562C7.839844 3.601562 8 3.441406 8 3.199219 8 2.960938 7.839844 2.800781 7.601562 2.800781L2.398438 2.800781C2.160156 2.800781 2 2.960938 2 3.199219 2 3.441406 2.160156 3.601562 2.398438 3.601562zM10 4.398438L4.398438 4.398438C4.160156 4.398438 4 4.558594 4 4.800781 4 5.039062 4.160156 5.199219 4.398438 5.199219L10 5.199219C10.238281 5.199219 10.398438 5.039062 10.398438 4.800781 10.398438 4.558594 10.238281 4.398438 10 4.398438zM2.398438 5.199219L2.800781 5.199219C3.039062 5.199219 3.199219 5.039062 3.199219 4.800781 3.199219 4.558594 3.039062 4.398438 2.800781 4.398438L2.398438 4.398438C2.160156 4.398438 2 4.558594 2 4.800781 2 5.039062 2.160156 5.199219 2.398438 5.199219zM10 2.800781L9.199219 2.800781C8.960938 2.800781 8.800781 2.960938 8.800781 3.199219 8.800781 3.441406 8.960938 3.601562 9.199219 3.601562L10 3.601562C10.238281 3.601562 10.398438 3.441406 10.398438 3.199219 10.398438 2.960938 10.238281 2.800781 10 2.800781zM2.398438 6.800781L6 6.800781C6.238281 6.800781 6.398438 6.640625 6.398438 6.398438 6.398438 6.160156 6.238281 6 6 6L2.398438 6C2.160156 6 2 6.160156 2 6.398438 2 6.640625 2.160156 6.800781 2.398438 6.800781zM10 6L7.601562 6C7.359375 6 7.199219 6.160156 7.199219 6.398438 7.199219 6.640625 7.359375 6.800781 7.601562 6.800781L10 6.800781C10.238281 6.800781 10.398438 6.640625 10.398438 6.398438 10.398438 6.160156 10.238281 6 10 6zM2.398438 8.398438L7.601562 8.398438C7.839844 8.398438 8 8.238281 8 8 8 7.761719 7.839844 7.601562 7.601562 7.601562L2.398438 7.601562C2.160156 7.601562 2 7.761719 2 8 2 8.238281 2.160156 8.398438 2.398438 8.398438zM10 9.199219L4.398438 9.199219C4.160156 9.199219 4 9.359375 4 9.601562 4 9.839844 4.160156 10 4.398438 10L10 10C10.238281 10 10.398438 9.839844 10.398438 9.601562 10.398438 9.359375 10.238281 9.199219 10 9.199219zM2.398438 10L2.800781 10C3.039062 10 3.199219 9.839844 3.199219 9.601562 3.199219 9.359375 3.039062 9.199219 2.800781 9.199219L2.398438 9.199219C2.160156 9.199219 2 9.359375 2 9.601562 2 9.839844 2.160156 10 2.398438 10zM2.398438 11.601562L6 11.601562C6.238281 11.601562 6.398438 11.441406 6.398438 11.199219 6.398438 10.960938 6.238281 10.800781 6 10.800781L2.398438 10.800781C2.160156 10.800781 2 10.960938 2 11.199219 2 11.441406 2.160156 11.601562 2.398438 11.601562zM10 10.800781L7.601562 10.800781C7.359375 10.800781 7.199219 10.960938 7.199219 11.199219 7.199219 11.441406 7.359375 11.601562 7.601562 11.601562L10 11.601562C10.238281 11.601562 10.398438 11.441406 10.398438 11.199219 10.398438 10.960938 10.238281 10.800781 10 10.800781zM7.601562 12.398438L2.398438 12.398438C2.160156 12.398438 2 12.558594 2 12.800781 2 13.039062 2.160156 13.199219 2.398438 13.199219L7.601562 13.199219C7.839844 13.199219 8 13.039062 8 12.800781 8 12.558594 7.839844 12.398438 7.601562 12.398438zM10 12.398438L9.199219 12.398438C8.960938 12.398438 8.800781 12.558594 8.800781 12.800781 8.800781 13.039062 8.960938 13.199219 9.199219 13.199219L10 13.199219C10.238281 13.199219 10.398438 13.039062 10.398438 12.800781 10.398438 12.558594 10.238281 12.398438 10 12.398438zM19.199219 12.398438L14 12.398438C13.761719 12.398438 13.601562 12.558594 13.601562 12.800781 13.601562 13.039062 13.761719 13.199219 14 13.199219L19.199219 13.199219C19.441406 13.199219 19.601562 13.039062 19.601562 12.800781 19.601562 12.558594 19.441406 12.398438 19.199219 12.398438zM21.601562 12.398438L20.800781 12.398438C20.558594 12.398438 20.398438 12.558594 20.398438 12.800781 20.398438 13.039062 20.558594 13.199219 20.800781 13.199219L21.601562 13.199219C21.839844 13.199219 22 13.039062 22 12.800781 22 12.558594 21.839844 12.398438 21.601562 12.398438zM10 7.601562L9.199219 7.601562C8.960938 7.601562 8.800781 7.761719 8.800781 8 8.800781 8.238281 8.960938 8.398438 9.199219 8.398438L10 8.398438C10.238281 8.398438 10.398438 8.238281 10.398438 8 10.398438 7.761719 10.238281 7.601562 10 7.601562zM10 7.601562"/>
    <path d="M 22.199219 0.398438 L 1.800781 0.398438 C 0.800781 0.398438 0 1.199219 0 2.199219 L 0 17.398438 C 0 18.398438 0.800781 19.199219 1.800781 19.199219 L 8.933594 19.199219 C 8.988281 19.894531 8.675781 20.578125 8.121094 20.960938 L 7.398438 21.480469 C 7.34375 21.515625 7.292969 21.558594 7.257812 21.609375 C 6.765625 21.679688 6.398438 22.089844 6.398438 22.601562 C 6.398438 23.160156 6.839844 23.601562 7.398438 23.601562 L 16.601562 23.601562 C 17.160156 23.601562 17.601562 23.160156 17.601562 22.601562 C 17.601562 22.066406 17.199219 21.640625 16.671875 21.605469 C 16.640625 21.554688 16.605469 21.511719 16.558594 21.480469 L 15.839844 20.960938 C 15.273438 20.570312 14.992188 19.902344 15.042969 19.199219 L 22.199219 19.199219 C 23.199219 19.199219 24 18.398438 24 17.398438 L 24 2.199219 C 24 1.199219 23.199219 0.398438 22.199219 0.398438 Z M 0.800781 2.238281 C 0.800781 1.679688 1.28125 1.199219 1.839844 1.199219 L 11.601562 1.199219 L 11.601562 14.800781 L 0.800781 14.800781 Z M 16.601562 22.800781 L 7.398438 22.800781 C 7.28125 22.800781 7.199219 22.71875 7.199219 22.601562 C 7.199219 22.480469 7.28125 22.398438 7.398438 22.398438 L 16.601562 22.398438 C 16.71875 22.398438 16.800781 22.480469 16.800781 22.601562 C 16.800781 22.71875 16.71875 22.800781 16.601562 22.800781 Z M 15.320312 21.601562 L 8.640625 21.601562 C 9.398438 21.039062 9.800781 20.121094 9.761719 19.199219 L 14.238281 19.199219 C 14.160156 20.121094 14.601562 21.039062 15.320312 21.601562 Z M 23.199219 17.398438 C 23.199219 17.960938 22.761719 18.398438 22.199219 18.398438 L 1.800781 18.398438 C 1.238281 18.398438 0.800781 17.960938 0.800781 17.398438 L 0.800781 15.601562 L 23.199219 15.601562 Z M 12.398438 14.800781 L 12.398438 1.199219 L 22.199219 1.199219 C 22.761719 1.199219 23.199219 1.640625 23.199219 2.199219 L 23.199219 14.800781 Z M 12.398438 14.800781"/>
    <path d="M 18.359375 2.414062 L 18.359375 2.398438 L 17.960938 2.398438 C 15.519531 2.398438 13.558594 4.359375 13.558594 6.800781 C 13.558594 6.960938 13.601562 7.078125 13.601562 7.238281 L 13.640625 7.601562 L 13.671875 7.601562 C 14.046875 9.65625 15.832031 11.199219 18 11.199219 C 20.441406 11.199219 22.398438 9.238281 22.398438 6.800781 C 22.398438 4.480469 20.628906 2.597656 18.359375 2.414062 Z M 14.40625 6.625 C 14.40625 6.578125 14.410156 6.535156 14.414062 6.488281 C 14.414062 6.476562 14.414062 6.46875 14.417969 6.457031 C 14.578125 4.773438 15.914062 3.425781 17.601562 3.238281 L 17.601562 6.800781 L 14.398438 6.800781 C 14.398438 6.742188 14.402344 6.683594 14.40625 6.625 Z M 18 10.398438 C 16.277344 10.398438 14.847656 9.210938 14.488281 7.601562 L 18.359375 7.601562 L 18.359375 3.21875 C 20.1875 3.394531 21.601562 4.921875 21.601562 6.800781 C 21.601562 8.800781 20 10.398438 18 10.398438 Z M 18 10.398438"/>
</svg>

<svg xmlns="http://www.w3.org/2000/svg" width="32" height="32" viewBox="0 0 24 24">
    <path d="M2.398 3.602h5.204c.238 0 .398-.16.398-.403 0-.238-.16-.398-.398-.398H2.398C2.16 2.8 2 2.96 2 3.199c0 .242.16.403.398.403zm0 0M10 4.398H4.398c-.238 0-.398.16-.398.403 0 .238.16.398.398.398H10c.238 0 .398-.16.398-.398 0-.242-.16-.403-.398-.403zm0 0M2.398 5.2h.403c.238 0 .398-.16.398-.4 0-.241-.16-.402-.398-.402h-.403c-.238 0-.398.16-.398.403 0 .238.16.398.398.398zm0 0M10 2.8h-.8c-.24 0-.4.16-.4.4 0 .241.16.402.4.402h.8c.238 0 .398-.16.398-.403 0-.238-.16-.398-.398-.398zm0 0M2.398 6.8H6c.238 0 .398-.16.398-.402C6.398 6.16 6.238 6 6 6H2.398C2.16 6 2 6.16 2 6.398c0 .243.16.403.398.403zm0 0M10 6H7.602c-.243 0-.403.16-.403.398 0 .243.16.403.403.403H10c.238 0 .398-.16.398-.403 0-.238-.16-.398-.398-.398zm0 0M2.398 8.398h5.204C7.84 8.398 8 8.238 8 8c0-.238-.16-.398-.398-.398H2.398C2.16 7.602 2 7.762 2 8c0 .238.16.398.398.398zm0 0M10 9.2H4.398C4.16 9.2 4 9.36 4 9.601c0 .238.16.398.398.398H10c.238 0 .398-.16.398-.398 0-.243-.16-.403-.398-.403zm0 0M2.398 10h.403c.238 0 .398-.16.398-.398 0-.243-.16-.403-.398-.403h-.403C2.16 9.2 2 9.36 2 9.602c0 .238.16.398.398.398zm0 0M2.398 11.602H6c.238 0 .398-.16.398-.403 0-.238-.16-.398-.398-.398H2.398c-.238 0-.398.16-.398.398 0 .242.16.403.398.403zm0 0M10 10.8H7.602c-.243 0-.403.16-.403.4 0 .241.16.402.403.402H10c.238 0 .398-.16.398-.403 0-.238-.16-.398-.398-.398zm0 0M7.602 12.398H2.398c-.238 0-.398.16-.398.403 0 .238.16.398.398.398h5.204c.238 0 .398-.16.398-.398 0-.242-.16-.403-.398-.403zm0 0M10 12.398h-.8c-.24 0-.4.16-.4.403 0 .238.16.398.4.398h.8c.238 0 .398-.16.398-.398 0-.242-.16-.403-.398-.403zm0 0M19.2 12.398H14c-.238 0-.398.16-.398.403 0 .238.16.398.398.398h5.2c.241 0 .402-.16.402-.398 0-.242-.16-.403-.403-.403zm0 0M21.602 12.398H20.8c-.242 0-.403.16-.403.403 0 .238.16.398.403.398h.8c.239 0 .399-.16.399-.398 0-.242-.16-.403-.398-.403zm0 0M10 7.602h-.8c-.24 0-.4.16-.4.398 0 .238.16.398.4.398h.8c.238 0 .398-.16.398-.398 0-.238-.16-.398-.398-.398zm0 0"/>
    <path d="M22.2.398H1.8C.8.398 0 1.2 0 2.2v15.2c0 1 .8 1.8 1.8 1.8h7.134c.054.696-.258 1.38-.813 1.762l-.723.52a.495.495 0 0 0-.14.128.993.993 0 0 0-.86.993c0 .558.442 1 1 1h9.204c.558 0 1-.442 1-1a.988.988 0 0 0-.93-.997.389.389 0 0 0-.113-.125l-.72-.52c-.566-.39-.847-1.058-.796-1.76h7.156c1 0 1.801-.802 1.801-1.802V2.2c0-1-.8-1.8-1.8-1.8zM.8 2.238C.8 1.68 1.282 1.2 1.84 1.2h9.762v13.602H.8zm15.802 20.563H7.398a.19.19 0 0 1-.199-.2c0-.12.082-.203.2-.203h9.203c.117 0 .199.082.199.204a.19.19 0 0 1-.2.199zm-1.282-1.2H8.64c.758-.562 1.16-1.48 1.122-2.402h4.476c-.078.922.364 1.84 1.082 2.403zm7.88-4.203c0 .563-.438 1-1 1H1.8c-.562 0-1-.437-1-1v-1.796h22.4zm-10.802-2.597V1.199H22.2a.99.99 0 0 1 1 1v12.602zm0 0"/>
    <path d="M18.36 2.414v-.016h-.4a4.39 4.39 0 0 0-4.401 4.403c0 .16.043.277.043.437l.039.364h.03A4.384 4.384 0 0 0 18 11.199a4.385 4.385 0 0 0 4.398-4.398c0-2.32-1.77-4.203-4.039-4.387zm-3.954 4.211c0-.047.004-.09.008-.137 0-.011 0-.02.004-.031a3.596 3.596 0 0 1 3.184-3.219v3.563h-3.204c0-.059.004-.117.008-.176zM18 10.398a3.582 3.582 0 0 1-3.512-2.796h3.871V3.219A3.583 3.583 0 0 1 21.602 6.8c0 2-1.602 3.597-3.602 3.597zm0 0"/>
</svg>
